public/img/events/hermaeus-mora.svg

<svg width="200" height="200" viewBox="0 0 200 200" fill="none" xmlns="http://www.w3.org/2000/svg">
<path d="M39.7669 103.677C52.9096 93.0923 67.136 81.8431 84.5548 80.107C94.0315 79.1612 103.531 80.6155 112.67 83.1096C121.592 85.5421 130.102 89.2087 139.394 90.0832C149.454 91.029 159.612 89.1115 168.745 84.8586C171.581 83.5404 169.112 79.3491 166.289 80.6641C158.269 84.3955 149.338 85.9599 140.523 85.3186C131.098 84.6319 122.41 80.6803 113.377 78.264C104.235 75.8185 94.6284 74.348 85.155 75.1901C76.2688 75.9805 67.8952 78.8956 60.125 83.2165C51.5795 87.9681 43.9164 94.1288 36.3279 100.241C35.2962 101.07 35.4779 102.809 36.3279 103.677C37.3271 104.698 38.7514 104.497 39.7669 103.677Z" fill="black"/>
<path d="M44.6039 99.9785C47.5562 99.878 50.1841 101.148 52.825 102.314C55.7319 103.596 58.6096 104.539 61.7631 104.999C68.5048 105.977 75.3893 106.469 82.1991 106.45C95.5138 106.414 108.248 103.379 120.589 98.5176C127.461 95.8098 134.167 92.7068 140.857 89.5909C143.692 88.2694 141.223 84.0813 138.401 85.3963C126.984 90.7148 115.466 96.0527 103.187 99.0877C90.3229 102.265 77.0114 102.042 63.9303 100.429C60.4005 99.9947 57.2632 98.997 54.0286 97.5654C51.0082 96.2277 47.965 95.0098 44.6006 95.1232C41.4796 95.2268 41.4666 100.085 44.6039 99.9785Z" fill="black"/>
<path d="M44.5519 99.9655C49.0907 113.586 61.3186 123.85 75.3113 126.788C91.1372 130.108 107.583 124.3 119.655 114.023C123.451 110.79 126.851 107.13 130.225 103.47C133.936 99.444 137.641 95.4179 141.35 91.3918C143.468 89.0921 140.032 85.649 137.907 87.9552C132.048 94.3166 126.351 100.905 120.167 106.955C114.672 112.339 108.345 116.847 101.126 119.63C88.0583 124.666 73.4718 123.889 61.922 115.607C56.0952 111.428 51.5142 105.485 49.2464 98.6764C48.2602 95.7224 43.5591 96.9856 44.5519 99.9655Z" fill="black"/>
<path d="M86.965 115.74C90.7835 115.74 94.4399 112.387 94.2647 108.452C94.0863 104.503 91.0561 101.164 86.965 101.164C83.1464 101.164 79.49 104.516 79.6652 108.452C79.8437 112.4 82.8739 115.74 86.965 115.74Z" fill="black"/>
<path fill-rule="evenodd" clip-rule="evenodd" d="M101.219 101.196L101.399 101.766C101.853 103.203 102.104 104.733 102.104 106.324C102.104 114.669 95.3276 121.434 86.9688 121.434C78.6099 121.434 71.834 114.669 71.834 106.324C71.834 105.035 71.9966 103.783 72.3018 102.588L72.5289 101.698L73.2922 102.21C73.4145 102.292 73.5655 102.343 73.7643 102.334C73.7826 102.333 73.7889 102.332 73.8029 102.33C73.8181 102.328 73.8422 102.324 73.9003 102.318L74.0005 102.307L74.0992 102.326C74.1197 102.33 74.1394 102.333 74.1617 102.334L74.1649 102.335L74.168 102.335C79.7204 102.736 85.2248 102.4 90.6905 101.547L91.1933 101.469L91.3894 101.938C91.5946 102.429 92.0685 102.731 92.5718 102.615C93.9379 102.301 95.321 102.127 96.6668 101.958L96.6763 101.957C98.0296 101.788 99.3453 101.623 100.636 101.329L101.219 101.196ZM96.8284 103.244C95.4724 103.414 94.1547 103.58 92.8636 103.878C91.8128 104.12 90.9335 103.604 90.4437 102.896C85.045 103.71 79.5906 104.025 74.0773 103.627C74.0376 103.625 73.9988 103.621 73.9605 103.616C73.9194 103.621 73.8703 103.626 73.8309 103.628L73.8277 103.628L73.8277 103.628C73.6797 103.635 73.537 103.628 73.4001 103.607C73.2243 104.485 73.1317 105.394 73.1317 106.324C73.1317 113.953 79.3266 120.138 86.9688 120.138C94.6109 120.138 100.806 113.953 100.806 106.324C100.806 105.076 100.637 103.869 100.326 102.72C99.1687 102.951 98.0049 103.097 96.8682 103.239L96.8284 103.244Z" fill="black"/>
<path d="M34.2251 93.8761C41.4145 87.5017 48.4904 80.9524 56.0302 74.9829C62.9926 69.47 70.62 64.3977 79.0779 61.5085C88.0128 58.4573 97.1618 58.5739 106.398 60.0477C115.911 61.5668 125.365 64.0285 135.046 64.1451C145.914 64.2746 156.254 60.757 164.436 53.5372C166.788 51.461 163.336 48.0374 160.994 50.1006C153.938 56.326 144.957 59.306 135.607 59.2898C125.874 59.2736 116.401 56.6953 106.84 55.228C97.4895 53.7931 88.1393 53.5502 79.0195 56.4167C70.474 59.1051 62.7363 63.8179 55.6344 69.1882C46.9396 75.7667 38.9326 83.2165 30.7829 90.4427C28.4372 92.5222 31.8892 95.9459 34.2251 93.8761Z" fill="black"/>
<path d="M34.5208 131.242C38.998 131.928 42.6738 134.953 46.6189 136.971C50.5154 138.963 54.6129 140.609 58.8046 141.866C66.9965 144.321 75.6816 145.344 84.2207 144.901C93.0096 144.447 101.656 142.481 109.741 139.009C118.478 135.258 125.975 129.441 133.946 124.368C143.251 118.447 153.367 114.042 164.047 111.283C167.078 110.499 165.793 105.812 162.753 106.599C153.429 109.009 144.406 112.643 136.042 117.421C127.659 122.211 120.142 128.407 111.535 132.822C96.614 140.476 78.7864 142.092 62.607 137.885C58.0941 136.712 53.7045 135.106 49.5356 133.017C45.0616 130.772 40.8732 127.338 35.8088 126.561C34.5014 126.36 33.2069 126.892 32.8143 128.258C32.4899 129.402 33.2231 131.044 34.5208 131.242Z" fill="black"/>
<path d="M40.9215 133.674C45.2916 134.853 42.057 142.096 41.5411 144.742C41.0837 147.09 40.9636 149.545 41.8818 151.796C42.7415 153.905 44.341 155.356 46.1643 156.642C47.7767 157.779 49.3275 158.757 50.6253 160.267C51.8516 161.692 52.8736 163.276 54.0999 164.701C56.9809 168.043 61.1012 169.631 65.3837 168.001C70.0458 166.226 74.5295 161.624 73.1571 156.283C72.3817 153.257 67.6872 154.54 68.4658 157.575C69.0336 159.781 66.8696 161.74 65.1533 162.754C63.2068 163.904 61.0298 164.309 59.1286 162.861C57.6719 161.753 56.6305 160.114 55.5339 158.679C54.074 156.768 52.5686 155.159 50.5863 153.779C48.7792 152.519 46.4887 151.411 46.0994 149.008C45.6939 146.517 46.7872 144.01 47.3712 141.632C48.5521 136.822 47.8676 130.513 42.2127 128.987C39.1858 128.174 37.8945 132.858 40.9215 133.674Z" fill="black"/>
<path d="M95.1663 142.371C97.4016 148.438 99.8024 154.475 101.736 160.645C103.53 166.366 104.789 172.303 104.182 178.321C103.692 183.173 101.833 188.093 98.3263 191.572C95.2409 194.633 89.1221 197.272 85.6864 193.136C84.3789 191.565 84.194 188.909 85.8064 187.461C86.6856 186.671 87.9055 186.266 88.869 185.583C90.0824 184.718 90.8903 183.701 91.3866 182.292C92.4281 179.338 87.7303 178.065 86.6953 181C86.4066 181.813 84.9077 182.282 84.2329 182.681C82.9644 183.435 81.8418 184.362 81.0697 185.638C79.6 188.061 79.4151 191.164 80.4792 193.774C82.9838 199.912 90.5626 201.292 96.1526 198.876C108.779 193.424 110.638 177.336 108.095 165.553C106.285 157.16 102.82 149.115 99.8608 141.082C98.787 138.167 94.0827 139.427 95.1663 142.371Z" fill="black"/>
<path d="M130.63 121.453C128.635 127.96 126.642 135.135 128.965 141.836C130.957 147.586 135.214 152.849 139.117 157.445C142.871 161.867 147.371 165.741 152.896 167.733C155.786 168.775 159.154 169.252 161.873 167.49C164.014 166.1 165.237 163.69 165.818 161.271C166.535 158.294 166.846 154.673 165.983 151.706C165.033 148.438 162.129 145.587 158.528 145.892C155.429 146.154 155.403 151.016 158.528 150.75C162.875 150.381 161.665 158.339 160.899 160.804C160.406 162.395 159.508 163.761 157.707 163.829C155.575 163.91 153.233 162.774 151.416 161.756C147.51 159.573 144.369 156.283 141.583 152.836C138.676 149.244 135.36 145.179 133.748 140.813C131.554 134.876 133.55 128.518 135.318 122.746C136.242 119.75 131.548 118.47 130.63 121.453Z" fill="black"/>
<path d="M118.986 58.8946C119.314 54.5057 122.98 51.2667 126.072 48.5556C129.352 45.6793 132.642 42.7577 134.507 38.7251C137.91 31.3725 137.343 22.2968 132.46 15.7183C131.672 14.6559 130.361 14.1474 129.131 14.847C128.083 15.443 127.477 17.1176 128.259 18.1702C132.684 24.1365 133.057 32.4965 128.933 38.7348C126.575 42.3043 122.808 44.7011 119.827 47.7005C116.757 50.7873 114.451 54.4765 114.12 58.8946C113.889 62.0138 118.756 61.9976 118.986 58.8946Z" fill="black"/>
<path d="M56.942 68.0805C52.9483 67.4035 48.9415 66.7719 44.9542 66.0528C43.4619 65.784 41.8008 65.5281 40.6782 64.4171C39.7471 63.4972 39.3026 62.1498 39.1112 60.8833C38.5856 57.4305 39.8509 53.8935 40.104 50.4634C40.3603 46.9717 39.6011 43.6096 37.3366 40.8921C35.3316 38.4855 31.9056 41.9383 33.8943 44.3287C36.1556 47.0397 35.1888 51.2051 34.6892 54.334C34.115 57.9261 33.7743 61.5344 35.2862 64.9516C36.7039 68.1517 39.5103 69.9105 42.8681 70.5907C47.0955 71.4458 51.391 72.0483 55.6476 72.7673C58.7102 73.2856 60.0274 68.602 56.942 68.0805Z" fill="black"/>
<path d="M85.5274 56.2451C82.6302 52.1542 78.1465 50.5606 73.4585 49.388C68.6666 48.1896 64.1537 47.0883 60.6758 43.3278C56.987 39.3373 55.8158 34.0933 56.6204 28.8137C57.4964 23.045 59.589 17.4965 58.7065 11.5918C57.9441 6.48707 54.9658 1.5184 49.7327 0.0964684C46.7058 -0.726245 45.4145 3.96063 48.4382 4.78011C52.3476 5.84251 53.9049 10.2573 54.0898 13.9304C54.3753 19.6375 51.9194 25.1439 51.5333 30.8122C51.17 36.1404 52.8602 41.3099 56.1597 45.4882C59.2516 49.4075 63.4724 51.7558 68.2286 53.0773C72.5468 54.2757 78.5099 54.7227 81.326 58.697C83.1201 61.2299 87.3409 58.8039 85.5274 56.2451Z" fill="black"/>
<path d="M112.472 109.919C115.603 109.919 115.609 105.06 112.472 105.06C109.338 105.06 109.335 109.919 112.472 109.919Z" fill="black"/>
<path fill-rule="evenodd" clip-rule="evenodd" d="M112.472 100.328C108.51 100.328 105.298 103.535 105.298 107.49C105.298 111.445 108.51 114.651 112.472 114.651C116.433 114.651 119.645 111.445 119.645 107.49C119.645 103.535 116.433 100.328 112.472 100.328ZM104.001 107.49C104.001 102.819 107.793 99.0327 112.472 99.0327C117.15 99.0327 120.943 102.819 120.943 107.49C120.943 112.16 117.15 115.947 112.472 115.947C107.793 115.947 104.001 112.16 104.001 107.49Z" fill="black"/>
<path fill-rule="evenodd" clip-rule="evenodd" d="M75.1687 33.9541C71.6299 33.9541 68.7611 36.8181 68.7611 40.3511C68.7611 43.8842 71.6299 46.7482 75.1687 46.7482C78.7074 46.7482 81.5762 43.8842 81.5762 40.3511C81.5762 36.8181 78.7074 33.9541 75.1687 33.9541ZM67.4634 40.3511C67.4634 36.1026 70.9131 32.6584 75.1687 32.6584C79.4242 32.6584 82.8739 36.1026 82.8739 40.3511C82.8739 44.5997 79.4242 48.0438 75.1687 48.0438C70.9131 48.0438 67.4634 44.5997 67.4634 40.3511Z" fill="black"/>
<path d="M75.0912 42.8614C78.222 42.8614 78.2285 38.0028 75.0912 38.0028C71.9605 38.0028 71.954 42.8614 75.0912 42.8614Z" fill="black"/>
</svg>

<svg xmlns="http://www.w3.org/2000/svg" width="200" height="200" fill="none"><path fill="#000" d="M39.767 103.677c13.143-10.585 27.369-21.834 44.788-23.57 9.476-.946 18.976.508 28.115 3.003 8.922 2.432 17.432 6.099 26.724 6.973 10.06.946 20.218-.971 29.351-5.224 2.836-1.319.367-5.51-2.456-4.195-8.02 3.731-16.951 5.296-25.766 4.655-9.425-.687-18.113-4.639-27.146-7.055-9.142-2.445-18.749-3.916-28.222-3.074-8.886.79-17.26 3.706-25.03 8.026-8.545 4.752-16.209 10.913-23.797 17.025-1.032.829-.85 2.568 0 3.436 1 1.021 2.423.82 3.439 0"/><path fill="#000" d="M44.604 99.979c2.952-.101 5.58 1.169 8.221 2.335 2.907 1.282 5.785 2.225 8.938 2.685 6.742.978 13.626 1.47 20.436 1.451 13.315-.036 26.049-3.071 38.39-7.932 6.872-2.708 13.578-5.811 20.268-8.927 2.835-1.322.366-5.51-2.456-4.195-11.417 5.319-22.935 10.657-35.214 13.692-12.864 3.177-26.176 2.954-39.257 1.341-3.53-.434-6.667-1.432-9.901-2.864-3.02-1.337-6.064-2.555-9.428-2.442-3.121.104-3.134 4.962.003 4.855"/><path fill="#000" d="M44.552 99.966c4.539 13.62 16.767 23.884 30.76 26.822 15.825 3.32 32.271-2.488 44.343-12.765 3.796-3.233 7.196-6.893 10.57-10.553 3.711-4.026 7.416-8.052 11.125-12.078 2.118-2.3-1.318-5.743-3.443-3.437-5.859 6.362-11.556 12.95-17.74 19-5.495 5.384-11.822 9.892-19.041 12.675-13.068 5.036-27.654 4.259-39.204-4.023-5.827-4.179-10.408-10.122-12.676-16.93-.986-2.955-5.687-1.691-4.694 1.288"/><path fill="#000" d="M86.965 115.74c3.819 0 7.475-3.353 7.3-7.288-.179-3.949-3.209-7.288-7.3-7.288-3.819 0-7.475 3.352-7.3 7.288.179 3.948 3.209 7.288 7.3 7.288"/><path fill="#000" fill-rule="evenodd" d="m101.219 101.196.18.57c.454 1.437.705 2.967.705 4.558 0 8.345-6.776 15.11-15.135 15.11s-15.135-6.765-15.135-15.11c0-1.289.163-2.541.468-3.736l.227-.89.763.512a.76.76 0 0 0 .472.124l.039-.004c.015-.002.04-.006.097-.012l.1-.011.1.019q.03.006.062.008l.003.001h.003c5.552.401 11.057.065 16.522-.788l.503-.078.196.469c.206.491.68.793 1.183.677 1.366-.314 2.749-.488 4.095-.657l.01-.001c1.353-.169 2.668-.334 3.959-.628zm-4.39 2.048c-1.357.17-2.674.336-3.965.634-1.051.242-1.93-.274-2.42-.982-5.399.814-10.853 1.129-16.367.731a2 2 0 0 1-.117-.011c-.04.005-.09.01-.13.012h-.002q-.222.01-.428-.021a14 14 0 0 0-.268 2.717c0 7.629 6.195 13.814 13.837 13.814s13.837-6.185 13.837-13.814a13.8 13.8 0 0 0-.48-3.604c-1.157.231-2.321.377-3.458.519z" clip-rule="evenodd"/><path fill="#000" d="M34.225 93.876c7.19-6.374 14.265-12.924 21.805-18.893 6.963-5.513 14.59-10.585 23.048-13.475 8.935-3.05 18.084-2.934 27.32-1.46 9.513 1.519 18.967 3.98 28.648 4.097 10.868.13 21.208-3.388 29.39-10.608 2.352-2.076-1.1-5.5-3.442-3.436-7.056 6.225-16.037 9.205-25.387 9.189-9.733-.016-19.206-2.595-28.767-4.062-9.35-1.435-18.7-1.678-27.82 1.189-8.546 2.688-16.284 7.4-23.386 12.771-8.694 6.579-16.701 14.028-24.851 21.255-2.346 2.08 1.106 5.503 3.442 3.433M34.52 131.242c4.478.686 8.154 3.711 12.099 5.729a72.7 72.7 0 0 0 12.186 4.895c8.191 2.455 16.877 3.478 25.416 3.035 8.789-.454 17.435-2.42 25.52-5.892 8.737-3.751 16.234-9.568 24.205-14.641a104.8 104.8 0 0 1 30.101-13.085c3.031-.784 1.746-5.471-1.294-4.684-9.324 2.41-18.347 6.044-26.711 10.822-8.383 4.79-15.9 10.986-24.507 15.401-14.921 7.654-32.749 9.27-48.928 5.063-4.513-1.173-8.902-2.779-13.071-4.868-4.474-2.245-8.663-5.679-13.727-6.456-1.308-.201-2.602.331-2.995 1.697-.324 1.144.41 2.786 1.707 2.984"/><path fill="#000" d="M40.922 133.674c4.37 1.179 1.135 8.422.62 11.068-.458 2.348-.578 4.803.34 7.054.86 2.109 2.459 3.56 4.282 4.846 1.613 1.137 3.163 2.115 4.461 3.625 1.227 1.425 2.249 3.009 3.475 4.434 2.88 3.342 7.001 4.93 11.284 3.3 4.662-1.775 9.145-6.377 7.773-11.718-.775-3.026-5.47-1.743-4.691 1.292.568 2.206-1.596 4.165-3.313 5.179-1.946 1.15-4.123 1.555-6.024.107-1.457-1.108-2.498-2.747-3.595-4.182-1.46-1.911-2.965-3.52-4.948-4.9-1.807-1.26-4.097-2.368-4.487-4.771-.405-2.491.688-4.998 1.272-7.376 1.181-4.81.497-11.119-5.158-12.645-3.027-.813-4.318 3.871-1.291 4.687M95.166 142.371c2.236 6.067 4.636 12.104 6.57 18.274 1.794 5.721 3.053 11.658 2.446 17.676-.49 4.852-2.349 9.772-5.856 13.251-3.085 3.061-9.204 5.7-12.64 1.564-1.307-1.571-1.492-4.227.12-5.675.88-.79 2.1-1.195 3.063-1.878 1.213-.865 2.021-1.882 2.518-3.291 1.041-2.954-3.657-4.227-4.692-1.292-.288.813-1.787 1.282-2.462 1.681-1.269.754-2.391 1.681-3.163 2.957-1.47 2.423-1.655 5.526-.59 8.136 2.504 6.138 10.083 7.518 15.673 5.102 12.626-5.452 14.485-21.54 11.942-33.323-1.81-8.393-5.275-16.438-8.234-24.471-1.074-2.915-5.778-1.655-4.695 1.289M130.63 121.453c-1.995 6.507-3.988 13.682-1.665 20.383 1.992 5.75 6.249 11.013 10.152 15.609 3.754 4.422 8.254 8.296 13.779 10.288 2.89 1.042 6.258 1.519 8.977-.243 2.141-1.39 3.364-3.8 3.945-6.219.717-2.977 1.028-6.598.165-9.565-.95-3.268-3.854-6.119-7.455-5.814-3.099.262-3.125 5.124 0 4.858 4.347-.369 3.137 7.589 2.371 10.054-.493 1.591-1.391 2.957-3.192 3.025-2.132.081-4.474-1.055-6.291-2.073-3.906-2.183-7.047-5.473-9.833-8.92-2.907-3.592-6.223-7.657-7.835-12.023-2.194-5.937-.198-12.295 1.57-18.067.924-2.996-3.77-4.276-4.688-1.293M118.986 58.895c.328-4.39 3.994-7.628 7.086-10.34 3.28-2.876 6.57-5.797 8.435-9.83 3.403-7.353 2.836-16.428-2.047-23.007-.788-1.062-2.099-1.57-3.329-.871-1.048.596-1.654 2.27-.872 3.323 4.425 5.967 4.798 14.326.674 20.565-2.358 3.57-6.125 5.966-9.106 8.965-3.07 3.087-5.376 6.776-5.707 11.195-.231 3.119 4.636 3.103 4.866 0M56.942 68.08c-3.994-.677-8-1.308-11.988-2.027-1.492-.269-3.153-.525-4.276-1.636-.93-.92-1.375-2.267-1.567-3.534-.525-3.453.74-6.99.993-10.42.256-3.491-.503-6.853-2.767-9.57-2.005-2.407-5.431 1.045-3.443 3.436 2.262 2.71 1.295 6.876.795 10.005-.574 3.592-.915 7.2.597 10.618 1.418 3.2 4.224 4.959 7.582 5.639 4.227.855 8.523 1.457 12.78 2.176 3.062.519 4.38-4.165 1.294-4.686M85.527 56.245c-2.897-4.09-7.38-5.684-12.068-6.857-4.792-1.198-9.305-2.3-12.783-6.06-3.689-3.99-4.86-9.235-4.056-14.514.876-5.769 2.969-11.317 2.087-17.222-.763-5.105-3.741-10.074-8.974-11.496-3.027-.822-4.318 3.865-1.295 4.684 3.91 1.063 5.467 5.477 5.652 9.15.285 5.708-2.17 11.214-2.557 16.882-.363 5.328 1.327 10.498 4.627 14.676 3.092 3.92 7.312 6.268 12.069 7.59 4.318 1.198 10.28 1.645 13.097 5.619 1.794 2.533 6.015.107 4.201-2.452M112.472 109.919c3.131 0 3.137-4.859 0-4.859-3.134 0-3.137 4.859 0 4.859"/><path fill="#000" fill-rule="evenodd" d="M112.472 100.328c-3.962 0-7.174 3.207-7.174 7.162s3.212 7.161 7.174 7.161c3.961 0 7.173-3.206 7.173-7.161s-3.212-7.162-7.173-7.162m-8.471 7.162c0-4.671 3.792-8.457 8.471-8.457 4.678 0 8.471 3.786 8.471 8.457 0 4.67-3.793 8.457-8.471 8.457-4.679 0-8.471-3.787-8.471-8.457M75.169 33.954c-3.54 0-6.408 2.864-6.408 6.397s2.869 6.397 6.408 6.397c3.538 0 6.407-2.864 6.407-6.397s-2.869-6.397-6.407-6.397m-7.706 6.397c0-4.248 3.45-7.693 7.706-7.693 4.255 0 7.705 3.445 7.705 7.693 0 4.249-3.45 7.693-7.705 7.693-4.256 0-7.706-3.444-7.706-7.693" clip-rule="evenodd"/><path fill="#000" d="M75.091 42.861c3.131 0 3.138-4.858 0-4.858-3.13 0-3.137 4.858 0 4.858"/></svg>
